**kern	**kern	**kern	**kern	**dynam
*part4	*part3	*part2	*part1	*part1
*staff4	*staff3	*staff2	*staff1	*
*I"Violoncello	*I"Viola	*I"Violin 2	*I"Violin 1	*
*clefF4	*clefC3	*clefG2	*clefG2	*
*k[f#]	*k[f#]	*k[f#]	*k[f#]	*
*G:	*G:	*G:	*G:	*
*M3/8	*M3/8	*M3/8	*M3/8	*
=1	=1	=1	=1	=1
8GG' 8G	8D'	8B'	8r	.
8r	8r	8r	(8dL	.
8r	8r	8r	8BJ)	.
=2	=2	=2	=2	=2
8r	8r	8r	8GL	.
8r	8r	8r	(8b	.
8G'	8B'	8d'	8gJ)	.
=3	=3	=3	=3	=3
.	.	.	(32qqf#/LLL	.
.	.	.	32qqg/	.
.	.	.	32qqa/JJJ	.
8r	8r	8r	8gL)	.
8A'L	8c'L	8d'L	8f#)	.
8A'J	8c'J	8d'J	8f#'J	.
=4	=4	=4	=4	=4
8A'	8c'	8d'	8f#'	.
8r	8r	8r	8r	.
8r	8r	8r	8r	.
=5	=5	=5	=5	=5
8D	8F#L	8A	8c	.
8r	(8c	8r	8r	.
8r	8AJ)	8r	8r	.
=6	=6	=6	=6	=6
8r	8F#'	8r	8r	.
8r	8r	(8ccL	(8eeL	.
8F#'	8d'	8aJ)	8ccJ)	.
=7	=7	=7	=7	=7
8r	8r	(8f#L	(8a#XL	.
8G'L	8d'L	8g)	8b)	.
8G'J	8d'J	8gJ	8bJ	.
=8	=8	=8	=8	=8
8G'	8d'	8g	8b	.
8r	8r	8r	8r	.
8r	8r	8r	8r	.
=9	=9	=9	=9	=9
(8FnL	(8fnL	8r	8r	.
8D	8d	8g'L	8gg'L	.
8BBJ)	8BJ)	8g'J	8gg'J	.
=10	=10	=10	=10	=10
(8GL	(8gL	8r	8r	.
8E	8e	8g'L	8gg'L	.
8CJ)	8cJ)	8g'J	8gg'J	.
=11	=11	=11	=11	=11
(8B-XL	(8b-XL	8r	8r	.
8G	8g	8g'L	8gg'L	.
8C#XJ)	8c#XJ)	8g'J	8gg'J	.
=12	=12	=12	=12	=12
.	.	32qqB/LLL	32qqb/LLL	fz
.	.	32qqd/JJJ	32qqgg/JJJ	.
4.D	8dL	4.g	(8bbL	.
.	8B	.	8gg	.
.	8BJ	.	8ddJ)	.
=13	=13	=13	=13	=13
.	.	32qqA/LLL	32qqf#/LLL	fz
.	.	32qqc/JJJ	32qqa/JJJ	.
4.DD	8AL	4.f#	(8ccL	.
.	8c	.	8a	.
.	8cJ	.	8f#J)	.
=14	=14	=14	=14	=14
8GL	16BLL	(8f#L	(8ff#L	.
.	16d	.	.	.
8G	16B	8gJ)	8ggJ)	.
.	16d	.	.	.
8GJ	16B	.	8r	.
.	16dJJ	.	.	.
=15	=15	=15	=15	=15
.	.	(8a#XL	.	.
8GL	16BLL	8bJ)	(8aa#XL	.
.	16d	.	.	.
8G	16B	.	8bbJ)	.
.	16d	.	.	.
8GJ	16B	.	8r	.
.	16dJJ	.	.	.
=16	=16	=16	=16	=16
.	.	4dd	.	.
8GL	16BLL	(32ccLLL	4ddd	.
.	.	32b	.	.
.	16d	32a	.	.
.	.	32gJJJ)	.	.
8G	16B	.	.	.
.	16d	.	.	.
8GJ	16B	.	(32cccLLL	.
.	.	.	32bb	.
.	16dJJ	.	32aa	.
.	.	.	32ggJJJ)	.
=17	=17	=17	=17	=17
.	.	(8gL	.	.
.	.	8f#)	.	.
8AL	16cLL	8f#J	(8ggL	.
.	16d	.	.	.
8A	16c	.	8ff#)	.
.	16d	.	.	.
8AJ	16c	.	8ff#J	.
.	16dJJ	.	.	.
=18	=18	=18	=18	=18
.	.	(8e-XL	.	.
.	.	8dJ)	.	.
8F#L	16ALL	8r	(8ee-XL	.
.	16c	.	.	.
8F#	16A	.	8ddJ)	.
.	16c	.	.	.
8F#J	16A	.	8r	.
.	16cJJ	.	.	.
=19	=19	=19	=19	=19
.	.	(8g#XL	.	.
.	.	8aJ)	.	.
8F#L	16ALL	8r	(8gg#XL	.
.	16c	.	.	.
8F#	16A	.	8aaJ)	.
.	16c	.	.	.
8F#J	16A	.	8r	.
.	16cJJ	.	.	.
=20	=20	=20	=20	=20
.	.	4ee	.	.
8F#L	16ALL	(32ddLLL	4eee	.
.	.	32cc	.	.
.	16c	32b	.	.
.	.	32aJJJ)	.	.
8F#	16A	.	.	.
.	16c	.	.	.
8F#J	16A	.	(32eeeLLL	.
.	.	.	32ccc	.
.	16dJJ	.	32bb	.
.	.	.	32aaJJJ)	.
=21	=21	=21	=21	=21
.	.	(8ccL	.	.
.	.	8b)	.	.
8GL	16BLL	8b'J	(8cccL	.
.	16d	.	.	.
8G	16B	.	8bb)	.
.	16d	.	.	.
8GJ	16B	.	8bbJ	.
.	16dJJ	.	.	.
=22	=22	=22	=22	=22
.	.	16g'LL	.	.
.	.	16b'	.	.
.	.	16g'	.	.
.	.	16b'	.	.
8G	8B'	16g'	4bb	.
.	.	16b'JJ	.	.
8r	8r	.	.	.
8r	8g'	.	(32aaLLL	.
.	.	.	32gg	.
.	.	.	32ff#	.
.	.	.	32eeJJJ)	.
=23	=23	=23	=23	=23
.	.	16a'LL	.	.
.	.	16b'	.	.
.	.	16a'	.	.
.	.	16b'	.	.
4.r	8f#'L	16a'	(8eeL	.
.	.	16b'JJ	.	.
.	8f#'	.	8dd#X)	.
.	8f#'J	.	8dd#J	.
=24	=24	=24	=24	=24
.	.	16g'LL	.	.
.	.	16b'	.	.
.	.	16g'	.	.
.	.	16b'	.	.
4.r	8eL	16g'	4ccc	.
.	.	16b'JJ	.	.
.	8e	.	.	.
.	8eJ	.	(32aaLLL	.
.	.	.	32gg	.
.	.	.	32ff#	.
.	.	.	32eeJJJ)	.
=25	=25	=25	=25	=25
.	.	16gLL	.	.
.	.	16a	.	.
.	.	16g	.	.
.	.	16a	.	.
4.r	8eL	16g	(8ddL	.
.	.	16aJJ	.	.
.	8e	.	8cc#X)	.
.	8eJ	.	8cc#J	.
=26	=26	=26	=26	=26
.	.	(8.aL	.	.
.	.	16eeJk)	.	.
4.r	8f#L	16eeLL	(16eeLL	.
.	.	16ddJJ	16dd)	.
.	8c#X	.	(16ff#	.
.	.	.	16ee)	.
.	8dJ	.	(16gg	.
.	.	.	16ff#JJ)	.
=27	=27	=27	=27	=27
.	.	(8ddL	.	.
.	.	8cc#X)	.	.
4.r	4.A	8cc#J	(8ff#L	.
.	.	.	8ee)	.
.	.	.	8eeJ	.
=28	=28	=28	=28	=28
.	.	8r	.	.
.	.	8a'L	.	.
(8GL	(8gL	8a'J	8r	.
8E	8e	.	8aa'L	.
8C#XJ)	8c#XJ)	.	8aa'J	.
=29	=29	=29	=29	=29
.	.	8r	.	.
.	.	8a'L	.	.
(8AL	(8aL	8a'J	8r	.
8F#	8f#	.	8aa'L	.
8DJ)	8dJ)	.	8aa'J	.
=30	=30	=30	=30	=30
.	.	8r	.	.
.	.	(8aL	.	.
(8cL	(8ccL	8ff#J)	8r	.
8B)	8b)	.	8aa'L	.
8d#XJ	8bJ	.	8aa'J	.
=31	=31	=31	=31	=31
.	.	8eeL	.	.
.	.	(8ee	.	.
(8eL	(8bL	8ddJ)	(8gg#XL	.
8c#X)	8a)	.	8ggn)	.
8d'J	8a'J	.	8ff#J	.
=32	=32	=32	=32	=32
.	.	8b'L	.	.
.	.	8a'	.	.
.	.	.	8qff#'/	.
8G'L	8g'L	8g'J	8ee'L	.
8A'	8f#'	.	8ee'	.
8A'J	8e'J	.	8dd'J	.
=33	=33	=33	=33	=33
.	.	(8ddL	.	.
.	.	8cc	.	.
(8f#L	(8aL	8bJ)	(8dddL	.
8e	8g	.	8ccc	.
8dJ)	8f#J)	.	8bbJ)	.
=34	=34	=34	=34	=34
.	.	(8a#XL	.	.
.	.	8b)	.	.
(8c#XL	(8eL	(8g#XJ	(8aa#XL	.
8d)	8fn)	.	8bb)	.
(8BJ	(8dJ	.	(8gg#XJ	.
=35	=35	=35	=35	=35
.	.	8aL)	.	.
.	.	(8gn	.	.
8c#XL)	8eL)	8f#J)	8aaL)	.
(8A#X	(8c#X	.	(8ggn	.
8BJ)	8dJ)	.	8ff#J)	.
=36	=36	=36	=36	=36
.	.	(8eL	.	.
.	.	8g	.	.
!	!	!LO:TX:b:i:t=dim.	!	!
4.G 4.B	4B	8bJ)	(8eeL	.
.	.	.	8gg	.
!	!LO:TX:b:i:t=dim.	!	!LO:TX:b:i:t=dim.	!
.	8g	.	8bbJ)	.
=37	=37	=37	=37	=37
!LO:TX:b:i:t=dim.	!	!	!	!
.	.	4a	.	.
4.A	4f#	8g	4dd	.
.	8c#X	.	(16ff#LL	.
.	.	.	16eeJJ)	.
=38	=38	=38	=38	=38
.	.	(8qf#/	.	.
.	.	4.ff#)	.	.
.	.	.	(8qdd/	p
4.D	16dLL	.	4.ddd)	.
.	16dd	.	.	.
.	16d	.	.	.
.	16dd	.	.	.
.	16d	.	.	.
.	16ddJJ	.	.	.
=39	=39	=39	=39	=39
.	.	(16aaLL	.	.
.	.	16ggJJ)	.	.
.	.	8gg	.	.
4.r	16dLL	8r	(16ccc#XLL	.
.	16dd	.	16bbJJ)	.
.	16d	.	8bb	.
.	16dd	.	.	.
.	16d	.	8r	.
.	16ddJJ	.	.	.
=40	=40	=40	=40	=40
.	.	4.B	.	.
4.G	16dLL	.	4.r	.
.	16dd	.	.	.
.	16d	.	.	.
.	16dd	.	.	.
.	16d	.	.	.
.	16ddJJ	.	.	.
=41	=41	=41	=41	=41
.	.	(16G#XLL	.	.
.	.	16AJJ)	.	.
.	.	8A	.	.
(16E#XLL	16dLL	8r	4.r	.
16F#JJ)	16dd	.	.	.
8F#	16d	.	.	.
.	16dd	.	.	.
8r	16d	.	.	.
.	16ddJJ	.	.	.
=42	=42	=42	=42	=42
.	.	4.ff#	.	.
4.r	16dLL	.	4.ddd	.
.	16dd	.	.	.
.	16d	.	.	.
.	16dd	.	.	.
.	16d	.	.	.
.	16ddJJ	.	.	.
=43	=43	=43	=43	=43
.	.	(16aaLL	.	.
.	.	16ggJJ)	.	.
.	.	8gg	.	.
4.r	16dLL	8r	(16ccc#XLL	.
.	16dd	.	16bbJJ)	.
.	16d	.	8bb	.
.	16dd	.	.	.
.	16d	.	8r	.
.	16ddJJ	.	.	.
=44	=44	=44	=44	=44
.	.	4.B	.	.
4.G	16dLL	.	4.r	.
.	16dd	.	.	.
.	16d	.	.	.
.	16dd	.	.	.
.	16d	.	.	.
.	16ddJJ	.	.	.
=45	=45	=45	=45	=45
.	.	(16G#XLL	.	.
.	.	16AJ)	.	.
.	.	8AJ	.	.
(16E#XLL	16dLL	8r	4.r	.
16F#J)	16dd	.	.	.
8F#J	16d	.	.	.
.	16dd	.	.	.
8r	16d	.	.	.
.	16ddJJ	.	.	.
=46	=46	=46	=46	=46
.	.	(16eeLL	.	.
.	.	16ggJ)	.	.
.	.	8ggJ	.	.
4.r	16dLL	8r	(16dddLL	.
.	16dd	.	16ccc#XJ)	.
.	16d	.	8dddJ	.
.	16dd	.	.	.
.	16d	.	.	.
.	16ddJJ	.	.	.
=47	=47	=47	=47	=47
.	.	(16ggLL	.	.
.	.	16ff#J)	.	.
.	.	8ff#J	(16eeeLL	.
.	.	.	16dddJ)	.
4.r	16dLL	8r	8eeeJ	.
.	16dd	.	.	.
.	16d	.	8r	.
.	16dd	.	.	.
.	16d	.	.	.
.	16ddJJ	.	.	.
=48	=48	=48	=48	=48
.	.	4.r	.	.
.	.	.	4.r	.
(8cnL	16dLL	.	.	.
.	16dd	.	.	.
8A	16d	.	.	.
.	16dd	.	.	.
8F#J)	16d	.	.	.
.	16ddJJ	.	.	.
=49	=49	=49	=49	=49
.	.	(8qb/	.	.
.	.	8bbL)	.	.
.	.	.	(8qdd/	f
.	.	8ggJ	8dddL)	.
(8qqGG/	.	.	.	.
4.G)	4d	(16bLL	8bbJ	.
.	.	16gJJ)	.	.
.	.	.	(16ggLL	.
.	.	.	16eeJJ)	.
.	8e	.	.	.
=50	=50	=50	=50	=50
.	.	(4f#	.	.
.	.	.	(4dd	.
4A	(8f#L	16aLL	.	.
.	.	16gJJ)	.	.
.	8a	.	16ff#LL	.
.	.	.	16eeJJ)	.
8AA	8c#XJ)	.	.	.
=51	=51	=51	=51	=51
.	.	(4f#	.	.
.	.	.	(16ddLL	p
.	.	.	16a)	.
4D	16dLL	8a)	(16ff#	.
.	16A	.	16a)	.
.	16f#	.	(16aa	.
.	16A	.	16aJJ)	.
8r	16a	.	.	.
.	16AJJ	.	.	.
=52	=52	=52	=52	=52
.	.	(8gL	.	.
!	!	!LO:TX:a:i:t=cresc.	!	!
.	.	8e	(16ggLL	.
.	.	.	16a)	.
!LO:TX:a:i:t=cresc.	!LO:TX:a:i:t=cresc.	!	!	!
4.r	16gLL	8c#XJ)	(16ee	.
.	16A	.	16a)	.
.	16e	.	(16cc#X	.
.	16A	.	16aJJ)	.
.	16c#X	.	.	.
.	16AJJ	.	.	.
=53	=53	=53	=53	=53
.	.	(16dLL	.	.
.	.	16A)	.	.
.	.	(16f#	(16ddLL	.
.	.	16A)	16a)	.
!LO:TX:b:i:t=cresc.	!	!	!	!
16DLL	(8dL	(16a	(16ff#	.
16AA	.	16AJJ)	16a)	.
16F#	8F#	.	(16aa	.
16AA	.	.	16aJJ)	.
16A	8AJ)	.	.	.
16AAJJ	.	.	.	.
=54	=54	=54	=54	=54
.	.	(16gLL	.	.
.	.	16A)	.	.
.	.	(16e	(16ggLL	.
.	.	16A)	16a)	.
(16GLL	(8GL	(16c#X	(16ee	.
16AA)	.	16AJJ)	16a)	.
(16E	8E	.	(16cc#X	.
16AA)	.	.	16aJJ)	.
(16C	8C#XJ)	.	.	.
16AAJJ)	.	.	.	.
=55	=55	=55	=55	=55
.	.	8d'L	.	.
.	.	(16f#L	(16ddLL	.
.	.	16a)	16a)	.
(16DLL	(16DLL	(16dd	(16f#	.
16AA)	16A)	16aJJ)	16a)	.
(16FF#	(16F#	.	(16dd	.
16AA)	16A)	.	16aJJ)	.
(16D	(16d	.	.	.
16AAJJ)	16AJJ)	.	.	.
=56	=56	=56	=56	=56
.	.	8f#'L	.	.
.	.	8A'	8dd'L	.
8D'L	8d'L	8A'J	8d'	.
8DD'	8F#'	.	8d'J	.
8DD'J	8F#'J	.	.	.
=57	=57	=57	=57	=57
.	.	8A'	.	.
.	.	8r	8d'	.
8DD'	8F#'	8r	8r	.
8r	8r	.	8r	.
8r	8r	.	.	.
=58:|!|:	=58:|!|:	=58:|!|:	=58:|!|:	=58:|!|:
.	.	8r	.	.
.	.	8d'L	8r	.
(8cL	(8ccL	8d'J	8dd'L	.
8A	8a	.	8dd'J	.
8F#J)	8f#J)	.	.	.
=59	=59	=59	=59	=59
.	.	8r	.	.
.	.	8d'L	8r	.
(8BL	(8bL	8d'J	8dd'L	.
8G	8g	.	8dd'J	.
8DJ)	8dJ)	.	.	.
=60	=60	=60	=60	=60
.	.	8r	.	.
.	.	8d'L	8r	.
(8cL	(8ccL	8d'J	8dd'L	.
8A	8a	.	8dd'J	.
8F#J)	8f#J)	.	.	.
=61	=61	=61	=61	=61
.	.	8r	.	.
.	.	8d'L	8r	.
(8B-XL	(8b-XL	8d'J	8dd'L	.
8G)	8g	.	8dd'J	.
8DJ	8dJ)	.	.	.
=62	=62	=62	=62	=62
.	.	8d'L	.	.
.	.	8a-X'	8r	.
!	!	!	!	!
8A-X'L	4.B-X 4.f#	8a-'J	8d'L 8dd	.
8F-X'J	.	.	8fn'J 8dd	.
(16DLL	.	.	.	.
16BB-XJJ)	.	.	.	.
=63	=63	=63	=63	=63
.	.	4.g	.	.
.	.	.	8GL 8e-X 8ee-X	.
4.E-X	4.B-X 4.g	.	(8b-X	.
.	.	.	8gJ)	.
=64	=64	=64	=64	=64
.	.	8r	.	.
.	.	8r	8e-X'L	.
8r	8r	8b-X'	(8gg-X	.
8r	8r	.	8ee-XJ)	.
8e-X'	8g'	.	.	.
=65	=65	=65	=65	=65
.	.	8r	.	.
.	.	.	(32qqdd/LLL	.
.	.	.	32qqee-X/	.
.	.	.	32qqffn/JJJ	.
.	.	8b-X'L	8ee-XL)	.
8r	8r	8b-'J	8dd)	.
8fn'L	8a-X'L	.	8dd'J	.
8f'J	8a-'J	.	.	.
=66	=66	=66	=66	=66
.	.	8b-X'	.	.
.	.	8r	8dd'	.
8fn'	8a-X'	8r	8r	.
8r	8r	.	8r	.
8r	8r	.	.	.
=67	=67	=67	=67	=67
.	.	8A-X' 8d	.	.
.	.	8r	8r	.
8BB'	8E'	8r	(8a-XL	.
8r	8r	.	8fnJ)	.
8r	8r	.	.	.
=68	=68	=68	=68	=68
.	.	8r	.	.
.	.	(8aa-XL	8d'L	.
8r	8r	8ffnJ)	(8ccc	.
8r	8r	.	8aa-XJ)	.
8e	8b-X	.	.	.
=69	=69	=69	=69	=69
.	.	(8ddL	.	.
.	.	8ee-X)	(8ff#XL	.
8r	8r	8ee-'J	8gg)	.
8e-X'L	8b-X'L	.	8ggJ	.
8e-J	8b-'J	.	.	.
=70	=70	=70	=70	=70
.	.	8ee-X'L	.	.
.	.	8e-X'	8ggL	.
8e-X'	8b-X'	8e-'J	8ee-X	.
8r	8r	.	8ee-J	.
8r	8r	.	.	.
=71	=71	=71	=71	=71
.	.	8r	.	.
.	.	8e-X'L	8r	.
4.r	(8d-XL	8e-'J	8ee-X'L	.
.	8B-X	.	8ee-'J	.
.	8GJ)	.	.	.
=72	=72	=72	=72	=72
.	.	8r	.	.
.	.	8e-XL	8r	.
(8cL	4.r	8enJ	8ee-XL	.
8A-X	.	.	8ee-J	.
8E-XJ)	.	.	.	.
=73	=73	=73	=73	=73
.	.	8r	.	.
.	.	8eL	8r	.
4.r	(8B-XL	8eJ	8eenL	.
.	8G	.	8eeJ	.
.	8CJ)	.	.	.
=74	=74	=74	=74	=74
!	!	!	!	!
.	.	8r	.	.
.	.	8fnL	8r	.
(8cL	4.r	8fJ	8ffnL	.
8A-X	.	.	8ffJ	.
8FnJ)	.	.	.	.
=75	=75	=75	=75	=75
.	.	8r	.	.
.	.	8f#L	8r	.
!	!	!	!	!
4.r	(8e-XL	8f#J	8ff#XL	.
.	8c	.	8ff#J	.
.	8AnJ)	.	.	.
=76	=76	=76	=76	=76
.	.	8r	.	.
.	.	8gL	8r	.
(8dL	4.r	8gJ	8ggL	.
8B-X	.	.	8ggJ	.
8GJ)	.	.	.	.
=77	=77	=77	=77	=77
.	.	8r	.	.
.	.	8g#X	8r	.
!	!	!	!	!
8r	(8fnL	8g#	8gg#X	.
8r	8d	.	8gg#	.
8r	8BnJ)	.	.	.
=78	=78	=78	=78	=78
.	.	8r	.	.
.	.	8aL	8r	.
(8enL	4.r	8aJ	8aaL	.
8c	.	.	8aaJ	.
8AJ)	.	.	.	.
=79	=79	=79	=79	=79
.	.	(8d#XL	.	.
.	.	8a)	(8cccL	.
4.Fn	(8AL	8a'J	8dd#X)	.
.	8c)	.	8dd#'J	.
.	8A'J	.	.	.
=80	=80	=80	=80	=80
.	.	4g#X	.	.
.	.	.	4ee	.
4.E	16eLL	8r	.	.
.	16ee	.	.	.
.	16e	.	8r	.
.	16ee	.	.	.
.	16e	.	.	.
.	16ddJJ	.	.	.
=81	=81	=81	=81	=81
.	.	4.ccc	.	.
.	.	.	4.eee	p
4.r	16eLL	.	.	.
.	16ee	.	.	.
.	16e	.	.	.
.	16ee	.	.	.
.	16e	.	.	.
.	16eeJJ	.	.	.
=82	=82	=82	=82	=82
.	.	(16aa#XLL	.	.
.	.	16bbJ)	.	.
.	.	8bb'J	(16ccc#XLL	.
.	.	.	16dddJ)	.
4.r	16eLL	8r	8ddd'J	.
.	16ee	.	.	.
.	16e	.	8r	.
.	16ee	.	.	.
.	16e	.	.	.
.	16eeJJ	.	.	.
=83	=83	=83	=83	=83
.	.	4.d [4.g	.	.
.	.	.	[4.gg	.
4.Bn	16eLL	.	.	.
.	16ee	.	.	.
.	16e	.	.	.
.	16ee	.	.	.
.	16e	.	.	.
.	16eeJJ	.	.	.
=84	=84	=84	=84	=84
.	.	16BLL	.	.
.	.	16cJ	.	.
.	.	8cJ	4.r	.
16G#XLL	16eLL	8r	.	.
16A#XJ	16ee	.	.	.
8AnJ	16e	.	.	.
.	16ee	.	.	.
8r	16e-X	.	.	.
.	16ee-XJJ	.	.	.
=85	=85	=85	=85	=85
.	.	4.bb	.	.
.	.	.	4.ddd	p
4.r	16dLL	.	.	.
.	16dd	.	.	.
.	16d	.	.	.
.	16dd	.	.	.
.	16d	.	.	.
.	16ddJJ	.	.	.
=86	=86	=86	=86	=86
.	.	(16gg#XLL	.	.
.	.	16aaJ)	.	.
.	.	8aaJ	(16bbLL	.
.	.	.	16cccJ)	.
4.r	16dLL	8r	8cccJ	.
.	16dd	.	.	.
.	16d	.	8r	.
.	16dd	.	.	.
.	16d	.	.	.
.	16ddJJ	.	.	.
=87	=87	=87	=87	=87
.	.	4.c	.	.
.	.	.	4.r	.
4.A	16dLL	.	.	.
.	16dd	.	.	.
.	16d	.	.	.
.	16dd	.	.	.
.	16d	.	.	.
.	16ddJJ	.	.	.
=88	=88	=88	=88	=88
.	.	(16A#XLL	.	.
.	.	16BJ)	.	.
.	.	8BJ	4.r	.
16F#LL	16dLL	8r	.	.
16GJJ	16dd	.	.	.
4G	16d	.	.	.
.	16dd	.	.	.
.	16d	.	.	.
.	16ddJJ	.	.	.
=89	=89	=89	=89	=89
!	!	!LO:TX:b:i:t=dim.	!	!
.	.	(16eeLL	.	.
.	.	16ggJ)	.	.
!	!	!	!LO:TX:b:i:t=dim.	!
.	.	8gg'J	(16dddLL	.
.	.	.	16ccc#XJ)	.
!	!LO:TX:b:i:t=dim.	!	!	!
4.r	16dLL	8r	8ccc#'J	.
.	16dd	.	.	.
.	16d	.	8r	.
.	16dd	.	.	.
.	16d	.	.	.
.	16ddJJ	.	.	.
=90	=90	=90	=90	=90
.	.	(16ggLL	.	.
.	.	16ff#J)	.	.
.	.	8ff#'J	(16eeeLL	.
.	.	.	16dddJ)	.
4.r	16dLL	8r	8ddd'J	.
.	16dd	.	.	.
.	16d	.	8r	.
.	16dd	.	.	.
.	16d	.	.	.
.	16ddJJ	.	.	.
=91	=91	=91	=91	=91
.	.	(16ff#'LL	.	.
.	.	16ff#'J	.	.
.	.	8ff#'J)	(16eeeLL	.
.	.	.	16dddJ)	.
4.r	16dLL	8r	8ddd'J	.
.	16cc	.	.	.
.	16d	.	8r	.
.	16cc	.	.	.
.	16d	.	.	.
.	16ccJJ	.	.	.
=92	=92	=92	=92	=92
.	.	(16ff#LL	.	.
.	.	16ggJ)	.	.
.	.	8gg'J	(16eeeLL	.
.	.	.	16dddJ)	.
4.r	16dLL	8r	8ddd'J	.
.	16b	.	.	.
.	16d	.	8r	.
.	16b	.	.	.
.	16d	.	.	.
.	16bJJ	.	.	.
=93	=93	=93	=93	=93
.	.	(16ff#LL	.	.
.	.	16aaJ)	.	.
.	.	8aa'J	(16dddLL	.
.	.	.	16cccJ)	.
4.r	16dLL	8r	8ccc'J	.
.	16f#	.	.	.
.	16d	.	.	.
.	16f#	.	.	.
.	16d	.	.	.
.	16f#JJ	.	.	.
=94	=94	=94	=94	=94
.	.	8d 8b 8gg	8g 8dd 8bb	.
.	.	(8dL	8r	.
4GG 4G	8G 8g	8BJ)	8r	.
.	8r	.	.	.
8r	8r	.	.	.
=95	=95	=95	=95	=95
.	.	8G'L	4.r	.
.	.	(8b	.	.
8r	8r	8gJ)	.	.
8r	8r	.	.	.
8G'	8B' 8d	.	.	.
=96	=96	=96	=96	=96
.	.	32qqf#/LLL	.	.
.	.	32qqg/	.	.
.	.	32qqa/JJJ	.	.
.	.	(8gL	8r	.
.	.	8f#)	16ddLL	.
.	.	.	32ee'L	.
.	.	.	32ff#'JJJ	.
8r	8r	8f#'J	32gg'LLL	.
.	.	.	32aa'	.
.	.	.	32bb'	.
.	.	.	32ccc'JJJ	.
8A'L	8c'L 8d	.	.	.
8A'J	8c'J 8d	.	.	.
=97	=97	=97	=97	=97
.	.	8f#'	16ddd'LL	.
.	.	.	16ddd'	.
.	.	8r	16ddd'	.
.	.	.	16ddd'	.
8A'	8c' 8d	8r	16ddd'	.
.	.	.	16ddd'JJ	.
8r	8r	.	.	.
8r	8r	.	.	.
=98	=98	=98	=98	=98
.	.	8c'	8ddd	.
.	.	8r	8r	.
8D' 8A	8F#'L	8r	8r	.
8r	(8c	.	.	.
8r	8AJ)	.	.	.
=99	=99	=99	=99	=99
.	.	8r	4.r	.
.	.	(8eeL	.	.
8r	8F#'L	8ccJ)	.	.
8r	(8cc	.	.	.
8F#'	8aJ)	.	.	.
=100	=100	=100	=100	=100
.	.	(8a#XL	8r	.
.	.	8b)	16g'LL	.
.	.	.	32a'L	.
.	.	.	32b'JJJ	.
8r	(8f#L	8b'J	32cc'LLL	.
.	.	.	32dd'	.
.	.	.	32ee'	.
.	.	.	32ff#'JJJ	.
8GG'	8g)	.	.	.
8GG'	8g'J	.	.	.
=101	=101	=101	=101	=101
.	.	8b'	16gg'LL	.
.	.	.	16gg'	.
.	.	8r	16gg'	.
.	.	.	16gg'	.
8GG'	8g'	8r	16gg'	.
.	.	.	16gg'JJ	.
8r	8r	.	.	.
8r	8r	.	.	.
=102	=102	=102	=102	=102
.	.	(32gLLL	(32ggLLL	.
.	.	32a	32aa	.
.	.	32g	32gg	.
.	.	32f#JJJ)	32ff#JJJ)	.
.	.	16g'LL	16gg'LL	.
.	.	16g'	16gg'	.
(8FnL	(8f#L	16g'	16gg'	.
.	.	16g'JJ	16gg'JJ	.
8D	8d	.	.	.
8BBJ)	8BJ)	.	.	.
=103	=103	=103	=103	=103
.	.	(32gLLL	(32ggLLL	.
.	.	32a	32aa	.
.	.	32g	32gg	.
.	.	32f#JJJ)	32ff#JJJ)	.
.	.	16g'LL	16gg'LL	.
.	.	16g'	16gg'	.
(8GL	(8gL	16g'	16gg'	.
.	.	16g'JJ	16gg'JJ	.
8E	8e	.	.	.
8CJ)	8cJ)	.	.	.
=104	=104	=104	=104	=104
!	!	!LO:TX:b:i:t=cresc.	!LO:TX:b:i:t=cresc.	!
.	.	(32gLLL	(32ggLLL	.
.	.	32a	32aa	.
.	.	32f#	32gg	.
.	.	32gJJJ)	32ff#JJJ)	.
.	.	16g'LL	16gg'LL	.
.	.	16g'	16gg'	.
!LO:TX:b:i:t=cresc.	!LO:TX:b:i:t=cresc.	!	!	!
(8B-XL	(8b-XL	16g'	16gg'	.
.	.	16g'JJ	16gg'JJ	.
8G	8g-X	.	.	.
8C#XJ)	8c#XJ)	.	.	.
=105	=105	=105	=105	=105
.	.	24b'LL	24bb'LL	.
.	.	24a'	24aa'	.
.	.	24g'JJ	24gg'JJ	.
.	.	24b'LL	24bb'LL	.
.	.	24a'	24aa'	.
.	.	24g'JJ	24gg'JJ	.
4.D	4.d	24f#'LL	24ff#'LL	.
.	.	24e'	24ee'	.
.	.	24d'JJ	24dd'JJ	.
=106	=106	=106	=106	=106
!	!	!LO:TX:b:i:t=decresc.	!LO:TX:b:i:t=decresc.	!
.	.	24cLL	24ccLL	.
.	.	24B	24b	.
.	.	24AJJ	24aJJ	.
.	.	24gLL	24gLL	.
.	.	24f#	24f#	.
.	.	24eJJ	24eJJ	.
!LO:TX:b:i:t=decresc.	!LO:TX:b:i:t=decresc.	!	!	!
4.DD	4F#	24dLL	24dLL	.
.	.	24e	24e	.
.	.	24f#JJ	24f#JJ	.
.	8c	.	.	.
=107	=107	=107	=107	=107
.	.	(8f#L	(8ff#L	.
.	.	8gJ)	8ggJ)	.
8GG	16BLL	8r	.	.
.	16d'	.	.	.
8G'L	16B'	.	.	.
.	16d'	.	.	.
8G'J	16B'	.	.	.
.	16d'JJ	.	.	.
=108	=108	=108	=108	=108
.	.	.	(8aa#XL	.
.	.	(8a#XL	8bbJ)	.
.	.	8bJ)	8r	.
8G'L	16BLL	8r	.	.
.	16d	.	.	.
8G'	16B	.	.	.
.	16d	.	.	.
8G'J	16B	.	.	.
.	16dJJ	.	.	.
=109	=109	=109	=109	=109
.	.	.	4ddd	.
.	.	4dd	.	.
.	.	.	(32cccLLL	.
.	.	.	32bb	.
.	.	.	32aa	.
.	.	.	32ggJJJ)	.
8GL	16BLL	(32ccLLL	.	.
.	.	32b	.	.
.	16d	32a	.	.
.	.	32gJJJ)	.	.
8G	16B	.	.	.
.	16d	.	.	.
8GJ	16B	.	.	.
.	16dJJ	.	.	.
=110	=110	=110	=110	=110
.	.	.	(8ggL	.
.	.	(8gL	8ff#)	.
.	.	8f#)	8ff#J	.
8AL	16cLL	8f#J	.	.
.	16d	.	.	.
8A	16c	.	.	.
.	16d	.	.	.
8AJ	16c	.	.	.
.	16dJJ	.	.	.
=111	=111	=111	=111	=111
.	.	.	(8ee-XL	.
.	.	(8e-XL	8ddJ)	.
.	.	8dJ)	.	.
8F#L	16ALL	.	.	.
.	16c	.	.	.
8F#	16A	.	.	.
.	16c	.	.	.
8F#J	16A	.	.	.
.	16cJJ	.	.	.
=112	=112	=112	=112	=112
.	.	.	(8gg#XL	.
.	.	(8g#XL	8aaJ)	.
.	.	8aJ)	.	.
.	.	8r	.	.
8F#L	16ALL	.	.	.
.	16c	.	.	.
8F#	16A	.	.	.
.	16c	.	.	.
8F#J	16A	.	.	.
.	16cJJ	.	.	.
=113	=113	=113	=113	=113
.	.	.	4eee	.
.	.	4ee	(32dddLLL	.
.	.	.	32ccc	.
.	.	.	32bb	.
.	.	.	32aaJJJ)	.
.	.	(32ddLLL	.	.
.	.	32cc	.	.
.	.	32b	.	.
.	.	32aJJJ)	.	.
8F#L	16ALL	.	.	.
.	16c	.	.	.
8F#	16A	.	.	.
.	16c	.	.	.
8F#J	16A	.	.	.
.	16cJJ	.	.	.
=114	=114	=114	=114	=114
.	.	.	(8cccL	.
.	.	.	8bb)	.
.	.	(8ccL	8bbJ	.
.	.	8b)	.	.
.	.	8bJ	.	.
8G	16BLL	.	.	.
.	16d	.	.	.
*clefG2	*	*	*	*
8gL	16B	.	.	.
.	16d	.	.	.
8gJ	16B	.	.	.
.	16dJJ	.	.	.
=115	=115	=115	=115	=115
.	.	.	(8gggL	.
.	.	.	8fff#	fz
.	.	(8ggL	8eeeJ)	.
.	.	8ff#	.	.
.	.	8eeJ)	.	.
(8bL	(8ddL	.	.	.
8a	8cc	.	.	.
8gJ)	8bJ)	.	.	.
=116	=116	=116	=116	=116
.	.	.	(8ddd#XL	fz
.	.	.	8eee)	.
.	.	(8dd#XL	(8ccc#XJ	.
.	.	8ee)	.	.
.	.	(8cc#XJ	.	.
(8f#L	(8aL	.	.	.
8g)	8b)	.	.	.
(8eJ	(8gJ	.	.	.
=117	=117	=117	=117	=117
.	.	.	8dddL)	.
.	.	.	(8ccc	fz
.	.	8ddL)	8bbJ)	.
.	.	(8cc	.	.
.	.	8bJ)	.	.
8fnL)	8aL)	.	.	.
(8d#X	(8f#	.	.	.
8eJ)	8gJ)	.	.	.
=118	=118	=118	=118	=118
.	.	.	(8aaL	.
.	.	.	8ccc	.
!	!	!	!LO:TX:b:i:t=dim.	!
.	.	(8aL	8eeeJ)	.
.	.	8cc	.	.
!	!	!LO:TX:b:i:t=dim.	!	!
.	.	8eeJ)	.	.
*clefF4	*	*	*	*
4.c	4e	.	.	.
!	!LO:TX:b:i:t=dim.	!	!	!
.	8cc	.	.	.
=119	=119	=119	=119	=119
!LO:TX:b:i:t=dim.	!	!	!	!
.	.	.	(4gg	.
.	.	(4dd	16bbLL	.
.	.	.	16aaJJ)	.
.	.	8cc)	.	.
4.d	4b	.	.	.
.	8f#	.	.	.
=120	=120	=120	=120	=120
.	.	.	4.gg	.
.	.	16GLL	.	.
.	.	16g'	.	.
.	.	16G'	.	.
.	.	16g'	.	.
.	.	16G'	.	.
.	.	16g'JJ	.	.
!	!	!	!	!
4.G	4.b	.	.	.
=121	=121	=121	=121	=121
.	.	.	(16ff#LL	p
.	.	.	16eeJJ)	.
.	.	.	8ee'	.
.	.	16GLL	8r	.
.	.	16g	.	.
.	.	16G	.	.
.	.	16g	.	.
.	.	16G	.	.
.	.	16gJJ	.	.
4.r	(16ddLL	.	.	.
.	16ccJ)	.	.	.
.	8cc'J	.	.	.
.	8r	.	.	.
=122	=122	=122	=122	=122
.	.	.	4.r	.
.	.	16GLL	.	.
.	.	16g	.	.
.	.	16G	.	.
.	.	16g	.	.
.	.	16G	.	.
.	.	16gJJ	.	.
4.c	4.e	.	.	.
=123	=123	=123	=123	=123
.	.	.	4.r	.
.	.	16GLL	.	.
.	.	16g	.	.
.	.	16G	.	.
.	.	16g	.	.
.	.	16G	.	.
.	.	16gJJ	.	.
(16A#XLL	(16c#XLL	.	.	.
16BJJ)	16dJJ)	.	.	.
8B'	8d'	.	.	.
8r	8r	.	.	.
=124	=124	=124	=124	=124
.	.	.	4.gg	p
.	.	16GLL	.	.
.	.	16g	.	.
.	.	16G	.	.
.	.	16g	.	.
.	.	16G	.	.
.	.	16gJJ	.	.
4.r	4.b	.	.	.
=125	=125	=125	=125	=125
.	.	.	(16ff#LL	.
.	.	.	16eeJJ)	.
.	.	.	8ee'	.
.	.	16GLL	8r	.
.	.	16g	.	.
.	.	16G	.	.
.	.	16g	.	.
.	.	16G	.	.
.	.	16gJJ	.	.
4.r	(16ddLL	.	.	.
.	16ccJJ)	.	.	.
.	8cc'	.	.	.
.	8r	.	.	.
=126	=126	=126	=126	=126
.	.	.	4.r	.
.	.	16GLL	.	.
.	.	16g	.	.
.	.	16G	.	.
.	.	16g	.	.
.	.	16G	.	.
.	.	16gJJ	.	.
4.C	4.E	.	.	.
=127	=127	=127	=127	=127
.	.	.	4.r	p
.	.	16GLL	.	.
.	.	16g	.	.
.	.	16G	.	.
.	.	16g	.	.
.	.	16G	.	.
.	.	16gJJ	.	.
(16AA#XLL	(16C#XLL	.	.	.
16BBJJ)	16DJ)	.	.	.
8BB'	8D'J	.	.	.
8r	8r	.	.	.
=128	=128	=128	=128	=128
.	.	.	(16ggLL	pp
.	.	.	16ff#JJ)	.
.	.	.	8ff#'	.
.	.	16GLL	8r	.
.	.	16g	.	.
.	.	16G	.	.
.	.	16g	.	.
.	.	16G	.	.
.	.	16gJJ	.	.
4.r	(16aLL	.	.	.
.	16ccnJ)	.	.	.
.	8cc'J	.	.	.
.	8r	.	.	.
=129	=129	=129	=129	=129
.	.	.	(16aaLL	.
.	.	.	16ggJJ)	.
.	.	.	8gg'	.
.	.	16GLL	8r	.
.	.	16g	.	.
.	.	16G	.	.
.	.	16g	.	.
.	.	16G	.	.
.	.	16gJJ	.	.
4.r	(16ccLL	.	.	.
.	16bJ)	.	.	.
.	8b'J	.	.	.
.	8r	.	.	.
=130	=130	=130	=130	=130
.	.	.	4.r	.
.	.	16GLL	.	.
.	.	16g	.	.
.	.	16G	.	.
.	.	16g	.	.
.	.	16G	.	.
.	.	16gJJ	.	.
(8FnL	4.r	.	.	.
8D	.	.	.	.
8BBJ)	.	.	.	.
=131	=131	=131	=131	=131
.	.	.	(8qg/	f
.	.	.	8gg'L)	.
.	.	.	8ee'J	.
.	.	(16qe/	.	.
.	.	8ee'L)	(16ccLL	.
.	.	.	16aJJ)	.
.	.	8cc'	.	.
.	.	8aJ	.	.
(8qCC/	.	.	.	.
4.C)	4.G 4.e	.	.	.
=132	=132	=132	=132	=132
.	.	.	(4g	.
.	.	.	16qqb/	.
.	.	(4g	8a)	.
.	.	8f#)	.	.
4D	(4B	.	.	.
.	16qqd/	.	.	.
8DD	8c)	.	.	.
=133	=133	=133	=133	=133
.	.	.	4g	.
.	.	4g	8r	.
.	.	8r	.	.
8GG	8B	.	.	.
*clefG2	*	*	*	*
(8gL	8r	.	.	.
!LO:TX:b:i:t=mezza voce	!	!	!	!
8eJ)	8r	.	.	.
=134	=134	=134	=134	=134
.	.	.	4.r	.
.	.	4.r	.	.
[4.c	8r	.	.	.
!	!LO:TX:b:i:t=mezza voce	!	!	!
.	(8ccL	.	.	.
.	8aJ)	.	.	.
=135	=135	=135	=135	=135
.	.	.	4.r	.
.	.	8r	.	.
.	.	(8eeL	.	.
!	!	!LO:TX:b:i:t=mezza voce	!	!
.	.	8ccJ)	.	.
4.c_	[4.f#	.	.	.
=136	=136	=136	=136	=136
.	.	.	8r	.
.	.	.	(8aaL	.
!	!	!	!LO:TX:b:i:t=mezza voce	!
.	.	[4.a	8ff#J)	.
(4.c]	4.f#_	.	.	.
=137	=137	=137	=137	=137
.	.	.	(8ddL	.
.	.	.	8ee	<
.	.	(8aL]	8ff#J)	.
.	.	8b	.	.
.	.	8ccJ)	.	.
*clefF4	*	*	*	*
(8cL)	(8f#L]	.	.	.
8B	8g	.	.	.
8AJ)	8dJ)	.	.	.
=138	=138	=138	=138	=138
.	.	.	(8ggL	[
.	.	.	8dd	>
.	.	4.b	8bJ)	.
4.G	4.d	.	.	.
=139	=139	=139	=139	=139
.	.	.	(8eeL	]
.	.	.	16ddL	.
.	.	.	16cc	.
.	.	(8ccL	16b	.
.	.	.	16aJJ)	.
.	.	8e	.	.
.	.	8cJ)	.	.
4.C	4g	.	.	.
.	8e	.	.	.
=140	=140	=140	=140	=140
.	.	.	(4g	.
.	.	(4B	16bLL	.
.	.	.	16aJJ)	.
.	.	16dLL	.	.
.	.	16cJJ)	.	.
4D	4d	.	.	.
8DD	8F#	.	.	.
=141	=141	=141	=141	=141
.	.	.	4.g	.
.	.	4B	.	.
.	.	8r	.	.
8GG	4G	.	.	.
*clefG2	*	*	*	*
(16gLL	.	.	.	.
16f#	.	.	.	.
16g	8r	.	.	.
16eJJ)	.	.	.	.
=142	=142	=142	=142	=142
.	.	.	4.r	]
.	.	4.r	.	.
[4.c	8r	.	.	.
.	(16ccLL	.	.	.
.	16b	.	.	.
.	16cc	.	.	.
.	[16aJJ)	.	.	.
=143	=143	=143	=143	=143
.	.	.	4.r	]
.	.	8r	.	.
.	.	(16eeLL	.	.
.	.	16dd#X	.	.
.	.	16ee	.	.
.	.	16ccJJ)	.	.
4.c_	[4.f# 4.a]	.	.	.
=144	=144	=144	=144	=144
.	.	.	8r	.
.	.	.	(16aaLL	p
.	.	.	16gg#X	>
.	.	[4.a	16aa	.
.	.	.	16ff#JJ)	]
4.c_	4.f#_	.	.	.
=145	=145	=145	=145	=145
.	.	.	8dd#XL	.
.	.	.	8dd#	.
.	.	8aL]	8dd#J	.
.	.	8a	.	.
.	.	8aJ	.	.
8cL]	8f#L]	.	.	.
8c	8f#	.	.	.
8cJ	8f#J	.	.	.
=146	=146	=146	=146	=146
!	!	!	!LO:TX:b:i:t=cresc.	!
.	.	.	8dd#XL	.
.	.	.	8dd#	.
!	!	!LO:TX:b:i:t=cresc.	!	!
.	.	8aL	8dd#J	.
.	.	8g#X	.	.
.	.	8g#J	.	.
!LO:TX:b:i:t=cresc.	!LO:TX:b:i:t=cresc.	!	!	!
8c	8f#L	.	.	.
*clefF4	*	*	*	*
8BBB#XL	8f#	.	.	.
8BBB#J	8f#J	.	.	.
=147	=147	=147	=147	=147
.	.	.	(4.dd#X;	f
.	.	[4.g#X;	.	.
(4.BBB#X;	(4.f#;	.	.	.
=148	=148	=148	=148	=148
.	.	.	4.ee;)	>
.	.	4g#;]	.	.
.	.	8r	.	.
4.CC#X;)	4.e;)	.	.	.
=149	=149	=149	=149	=149
.	.	.	8r	]
.	.	.	(8g#XL	.
.	.	8G#X'	8eJ)	.
.	.	8r	.	.
.	.	8r	.	.
!	!	!	!	!
8C#X'	8E'	.	.	.
8r	8r	.	.	.
8r	8r	.	.	.
=150	=150	=150	=150	=150
.	.	.	8c#X'L	.
.	.	.	(8cc#X	.
.	.	8G#X'	8f#J)	.
.	.	8r	.	.
.	.	8r	.	.
8C#X'	8E'	.	.	.
8r	8r	.	.	.
8r	8r	.	.	.
=151	=151	=151	=151	=151
.	.	.	8e'L	.
.	.	.	(8ee	.
.	.	8G#X'	8cc#XJ)	.
.	.	8r	.	.
.	.	8r	.	.
8C#X'	8E'	.	.	.
8r	8r	.	.	.
8r	8r	.	.	.
=152	=152	=152	=152	=152
.	.	.	8a'L	.
.	.	.	(8ee	.
.	.	8A'	8cc#XJ)	.
.	.	8r	.	.
.	.	8r	.	.
8C#X'	8E'	.	.	.
8r	8r	.	.	.
8r	8r	.	.	.
=153	=153	=153	=153	=153
.	.	.	8gL	.
.	.	.	(8ee'	.
!	!	!	!	!
.	.	8B-XL	8ee'J)	.
.	.	8g	.	.
.	.	8gJ	.	.
4.C#X	16ELL	.	.	.
.	16GJ	.	.	.
.	8B-X	.	.	.
.	8B-J	.	.	.
=154	=154	=154	=154	=154
.	.	.	(8dL 8dd	fz
.	.	.	8b	.
.	.	4.g 4.bn	8gJ)	.
4.D	4.Bn 4.gn	.	.	.
=155	=155	=155	=155	=155
.	.	.	(16qqa/LL	.
.	.	.	16qqb/JJ	.
.	.	.	8ccL)	.
.	.	.	8a	>
.	.	(4A 4f#	8f#J)	.
.	.	8c)	.	.
4.DD	(4c	.	.	.
.	8A)	.	.	.
=156	=156	=156	=156	=156
.	.	.	8gL	]
.	.	.	(8d'	.
.	.	16B'LL	8d'J)	.
.	.	16d'	.	.
.	.	16B'	.	.
.	.	16d'	.	.
.	.	16B'	.	.
.	.	16d'JJ	.	.
4GG	16G'LL	.	.	.
.	16B'	.	.	.
.	16G'	.	.	.
.	16B'	.	.	.
8r	16G'	.	.	.
.	16B'JJ	.	.	.
=157	=157	=157	=157	=157
!	!	!	!LO:TX:a:i:t=dolce	!
.	.	.	(8qd/	.
.	.	.	4b)	.
.	.	16BLL	(32aLLL	.
.	.	.	32g	.
.	.	16d	32f#	.
.	.	.	32eJJJ)	.
.	.	16B	.	.
.	.	16d	.	.
.	.	16B	.	.
.	.	16dJJ	.	.
4G	16GLL	.	.	.
.	16B	.	.	.
.	16G	.	.	.
.	16B	.	.	.
8r	16G	.	.	.
.	16BJJ	.	.	.
=158	=158	=158	=158	=158
.	.	.	8dL	.
.	.	.	(8d'	.
.	.	16cLL	8d'J)	.
.	.	16d	.	.
.	.	16c	.	.
.	.	16d	.	.
.	.	16c	.	.
.	.	16dJJ	.	.
4Fn	16ALL	.	.	.
.	16c	.	.	.
.	16A	.	.	.
.	16c	.	.	.
8r	16A	.	.	.
.	16cJJ	.	.	.
=159	=159	=159	=159	=159
.	.	.	(8qd/	.
.	.	.	[8ccL)	.
.	.	.	32ccLL]	.
.	.	.	(32b	.
.	.	.	32a	.
.	.	.	32gJJJ	.
.	.	16cLL	32f#LLL	.
.	.	.	32e	.
.	.	16d	32d	.
.	.	.	32cJJJ)	.
.	.	16c	.	.
.	.	16d	.	.
.	.	16c	.	.
.	.	16dJJ	.	.
(4.FF#	16ALL	.	.	.
.	16c	.	.	.
.	16A	.	.	.
.	16c	.	.	.
.	16A	.	.	.
.	16cJJ	.	.	.
=160	=160	=160	=160	=160
.	.	.	8BL	.
.	.	.	(8dd'	.
.	.	16BLL	8dd'J)	.
.	.	16dd	.	.
.	.	16b	.	.
.	.	16dd	.	.
.	.	16b	.	.
.	.	16ddJJ	.	.
4GG)	16GLL	.	.	.
.	16b	.	.	.
.	16g	.	.	.
.	16b	.	.	.
8r	16g	.	.	.
.	16bJJ	.	.	.
=161	=161	=161	=161	=161
.	.	.	(8qqdd/	.
.	.	.	8bb)	.
.	.	.	(32aaLLL	.
.	.	.	32gg	.
.	.	.	32ff#	.
.	.	.	32eeJJJ)	.
.	.	16bLL	8r	.
.	.	16dd	.	.
.	.	16b	.	.
.	.	16dd	.	.
.	.	16b	.	.
.	.	16ddJJ	.	.
4G	16gLL	.	.	.
.	16b	.	.	.
.	16g	.	.	.
.	16b	.	.	.
8r	16g	.	.	.
.	16bJJ	.	.	.
=162	=162	=162	=162	=162
.	.	.	8dd'L	.
.	.	.	(8dd'	.
.	.	16ccLL	8dd'J)	.
.	.	16dd	.	.
.	.	16cc	.	.
.	.	16dd	.	.
.	.	16cc	.	.
.	.	16ddJJ	.	.
4F#	16aLL	.	.	.
.	16dd	.	.	.
.	16a	.	.	.
.	16cc	.	.	.
8r	16a	.	.	.
.	16ddJJ	.	.	.
=163	=163	=163	=163	=163
.	.	.	(8qdd/	.
.	.	.	[8ccc)	.
.	.	.	32cccLLL]	.
.	.	.	(32bb	.
.	.	.	32aa	.
.	.	.	32ggJJJ	.
.	.	16ccLL	32ff#LLL	.
.	.	.	32ee	.
.	.	16dd	32dd	.
.	.	.	32ccJJJ)	.
.	.	16cc	.	.
.	.	16dd	.	.
.	.	16cc	.	.
.	.	16ddJJ	.	.
(4.f#	16aLL	.	.	.
.	16cc	.	.	.
.	16a	.	.	.
.	16cc	.	.	.
.	16a	.	.	.
.	16ddJJ	.	.	.
=164	=164	=164	=164	=164
.	.	.	8b'L	.
.	.	.	(8ddd'	<
.	.	8b	8ddd'J)	.
.	.	8r	.	.
.	.	8r	.	.
8g)	8d 8b	.	.	.
8r	8r	.	.	.
8r	8r	.	.	.
=165	=165	=165	=165	=165
.	.	.	(4ddd	mf
.	.	(4g#X	32cccLLL	.
.	.	.	32bb	.
.	.	.	32aa	.
.	.	.	32gg#XJJJ)	.
.	.	8ffn)	.	.
[4.B	(4f#	.	.	.
.	8d)	.	.	.
=166	=166	=166	=166	=166
.	.	.	(16aaLL	.
.	.	.	16cccJ)	.
.	.	.	8eee'J	.
.	.	(16eeLL	8r	.
.	.	16ccJ)	.	.
.	.	8a'J	.	.
.	.	8r	.	.
4c	4c	.	.	.
8r	8r	.	.	.
=167	=167	=167	=167	=167
.	.	.	8r	.
.	.	.	8f#'	p
.	.	8r	8r	.
.	.	4c'	.	.
8D'	8A'	.	.	.
8r	8r	.	.	.
8r	8r	.	.	.
=168	=168	=168	=168	=168
.	.	.	(16gLL	.
.	.	.	16d)	.
.	.	.	(16b	.
.	.	.	16d)	.
.	.	(8GL	(16dd	.
.	.	.	16dJJ)	.
.	.	8B	.	.
.	.	8dJ)	.	.
4GG	(16GLL	.	.	.
.	16D)	.	.	.
.	(16B	.	.	.
.	16D)	.	.	.
8r	(16d	.	.	.
.	16DJJ)	.	.	.
=169	=169	=169	=169	=169
.	.	.	(16ccLL	.
.	.	.	16d)	.
.	.	.	(16a	.
.	.	.	16d)	.
.	.	(8cL	(16f#	.
.	.	.	16dJJ)	.
!	!	!LO:TX:a:i:t=cresc.	!	!
.	.	8A	.	.
.	.	8f#J)	.	.
4.r	(16cLL	.	.	.
.	16D)	.	.	.
!	!LO:TX:a:i:t=cresc.	!	!	!
.	(16A	.	.	.
.	16D)	.	.	.
.	(16F#	.	.	.
.	16DJJ)	.	.	.
=170	=170	=170	=170	=170
!LO:TX:a:i:t=cresc.	!	!	!	!
.	.	.	(16gLL	.
.	.	.	16d)	.
.	.	.	(16b	.
.	.	.	16d)	.
.	.	(16gLL	(16dd	.
.	.	16d)	16dJJ)	.
.	.	(16b	.	.
.	.	16d)	.	.
.	.	(16dd	.	.
.	.	16dJJ)	.	.
(16GLL	(16GLL	.	.	.
16D)	16D)	.	.	.
(16B	(16B	.	.	.
16D)	16D)	.	.	.
(16e	(16d	.	.	.
16DJJ)	16DJJ)	.	.	.
=171	=171	=171	=171	=171
.	.	.	(16ccLL	.
.	.	.	16d)	.
.	.	.	(16a	.
.	.	.	16d)	.
.	.	(16ccLL	(16f#	.
.	.	16d)	16dJJ)	.
.	.	(16a	.	.
.	.	16d)	.	.
.	.	(16f#	.	.
.	.	16dJJ)	.	.
(16cLL	(16cLL	.	.	.
16D)	16D)	.	.	.
(16A	(16A	.	.	.
16D)	16D)	.	.	.
(16F#	(16F#	.	.	.
16DJJ)	16DJJ)	.	.	.
=172	=172	=172	=172	=172
.	.	.	(16gLL	.
.	.	.	16d)	.
.	.	.	(16B	.
.	.	.	16d)	.
.	.	16gLL	(16g	.
.	.	16d	16dJJ)	.
.	.	16B	.	.
.	.	16d	.	.
.	.	16g	.	.
.	.	16dJJ	.	.
(16GLL	(16GLL	.	.	.
16D)	16d)	.	.	.
(16BB	(16B	.	.	.
16D)	16d)	.	.	.
(16G	(16g	.	.	.
16DJJ)	16dJJ)	.	.	.
=173	=173	=173	=173	=173
.	.	.	8g'L	fp
.	.	.	8B'	.
.	.	8g'L	8B'J	.
.	.	8B'	.	.
.	.	8B'J	.	.
8G'	8B'L	.	.	.
8GG'L	8D'	.	.	.
8GG'J	8D'J	.	.	.
=174	=174	=174	=174	=174
.	.	.	8B'	.
.	.	.	8r	.
.	.	8B'	8r	.
.	.	8r	.	.
.	.	8r	.	.
8GG'	8D'	.	.	.
.	8r	.	.	.
=:|!	=:|!	=:|!	=:|!	=:|!
*-	*-	*-	*-	*-
!!!system-decoration: [(s1,s2,s3,s4)]
